X: 22034
T: Knees Up In Hanoi
R: reel
M: 4/4
K: Bminor
BBBd eBBB|efga f2 ed|BBBd eBBB|ABcd c2 BA:|
GGGB defd|eBBB defd|eeeA defd|ABcd c2 BA:|

